app/public/dtpr-icons/yes.svg

<svg width="36" height="36" viewBox="0 0 36 36" fill="none" xmlns="http://www.w3.org/2000/svg">
<path fill-rule="evenodd" clip-rule="evenodd" d="M18 10.8887C17.04 10.8887 16.108 11.0767 15.232 11.4477C14.386 11.8057 13.625 12.3187 12.972 12.9717C12.318 13.6247 11.806 14.3857 11.447 15.2327C11.077 16.1087 10.889 17.0397 10.889 17.9997C10.889 18.9607 11.077 19.8917 11.447 20.7677C11.806 21.6147 12.318 22.3747 12.972 23.0287C13.625 23.6817 14.386 24.1947 15.232 24.5527C16.108 24.9237 17.04 25.1117 18 25.1117C18.96 25.1117 19.892 24.9237 20.768 24.5527C21.614 24.1947 22.375 23.6817 23.028 23.0287C23.682 22.3747 24.194 21.6147 24.553 20.7677C24.923 19.8917 25.111 18.9607 25.111 17.9997C25.111 17.0397 24.923 16.1087 24.553 15.2327C24.194 14.3857 23.682 13.6247 23.028 12.9717C22.375 12.3187 21.614 11.8057 20.768 11.4477C19.892 11.0767 18.96 10.8887 18 10.8887ZM18 26.8887C16.8 26.8887 15.636 26.6537 14.54 26.1897C13.481 25.7427 12.531 25.1017 11.715 24.2847C10.898 23.4697 10.258 22.5187 9.80996 21.4607C9.34596 20.3637 9.11096 19.1997 9.11096 17.9997C9.11096 16.8007 9.34596 15.6367 9.80996 14.5397C10.258 13.4807 10.898 12.5307 11.715 11.7147C12.531 10.8987 13.481 10.2577 14.54 9.80969C15.636 9.34669 16.8 9.11169 18 9.11169C19.199 9.11169 20.364 9.34669 21.46 9.80969C22.519 10.2577 23.47 10.8987 24.285 11.7147C25.102 12.5307 25.742 13.4807 26.19 14.5397C26.653 15.6367 26.889 16.8007 26.889 17.9997C26.889 19.1997 26.653 20.3637 26.19 21.4607C25.742 22.5187 25.102 23.4697 24.285 24.2847C23.47 25.1017 22.519 25.7427 21.46 26.1897C20.364 26.6537 19.199 26.8887 18 26.8887Z" fill="black"/>
<path fill-rule="evenodd" clip-rule="evenodd" d="M20.667 21.5557C20.439 21.5557 20.212 21.4687 20.038 21.2957L17.111 18.3677V13.5557C17.111 13.0647 17.509 12.6667 18 12.6667C18.491 12.6667 18.889 13.0647 18.889 13.5557V17.6317L21.295 20.0377C21.643 20.3857 21.643 20.9487 21.295 21.2957C21.122 21.4687 20.895 21.5557 20.667 21.5557Z" fill="black"/>
<rect x="3" y="3" width="30" height="30" rx="3" stroke="black" stroke-width="2"/>
</svg>

<svg xmlns="http://www.w3.org/2000/svg" width="36" height="36" fill="none"><path fill="#000" fill-rule="evenodd" d="M18 10.889a7.092 7.092 0 0 0-5.028 2.083A7.1 7.1 0 0 0 10.889 18a7.07 7.07 0 0 0 2.083 5.029A7.1 7.1 0 0 0 18 25.112a7.092 7.092 0 0 0 5.028-2.083A7.074 7.074 0 0 0 25.111 18a7.07 7.07 0 0 0-2.083-5.028A7.1 7.1 0 0 0 18 10.889m0 16c-1.2 0-2.364-.235-3.46-.7a8.8 8.8 0 0 1-2.825-1.904A8.8 8.8 0 0 1 9.81 21.46 8.8 8.8 0 0 1 9.111 18c0-1.2.235-2.363.699-3.46a8.8 8.8 0 0 1 1.905-2.825A8.86 8.86 0 0 1 18 9.112a8.85 8.85 0 0 1 6.285 2.603A8.85 8.85 0 0 1 26.889 18a8.85 8.85 0 0 1-2.604 6.285 8.8 8.8 0 0 1-2.825 1.905 8.8 8.8 0 0 1-3.46.699" clip-rule="evenodd"/><path fill="#000" fill-rule="evenodd" d="M20.667 21.556a.9.9 0 0 1-.629-.26l-2.927-2.928v-4.812a.889.889 0 1 1 1.778 0v4.076l2.406 2.406a.888.888 0 0 1-.628 1.518" clip-rule="evenodd"/><rect width="30" height="30" x="3" y="3" stroke="#000" stroke-width="2" rx="3"/></svg>
